X:1
T:Title
%%score 1 2 3
L:1/8
M:2/2
K:C
V:1 treble nm="Part_1"
V:2 treble-8 nm="Part_2"
V:3 treble-8 nm="Part_3"
V:1
 A8 | c8 | A8 | G8 | A8 | F8 | A8 | c8 | B8 | d8 | B8 | c8 | A8 | A8 | G4 G4- | G4 ^F4 | G8 || G8 | %18
 F8 | E8 | C8 | D8 | F8 | G8 | A8 | G8 | c8 | B8 | A8 | G8 | A8 | B8- | B4 A4- | A4 G4- | G4 ^F4 | %35
 G8 || G8 | A8 | G8 | F4 G4- | G4 F4- | F4 E4 | F8 | z8 | C8- | C4 D4- | D4 E4 | F8 | G8 | A8 | %50
 G8 | c8 | B8 | A8 | G8 | A4 _B4 | A4 G4- | G2 E2 ^F4 | G8 || c8 | c8 | B8 | A8 | c8 | c8 | B8 | %66
 G8 | A8 | G8 | A8 | G8 | F8 | F8 | A8 | c8 | c8 | G8 | A8 | _B4 A4- | A4 G4- | G4 ^F4 | G8 || G8 | %83
 d8 | d8 | c8 | d8 | c8 | B8 | ^c8 | d8 | z4 e4- | e4 d4- | d4 ^c4 | d8 | z8 | G4 d4 | d4 c4 | %98
 d4 c4 | B4 c4 | d4 e4- | e4 ^c4 | d8 | z8 | G8 | d8 | c8 | A8 | c8 | c8 | G8 | A8 | G8 | A8 | %114
 G4 F4- | F2 D2 E4 | F8 | z8 | F8 | A8 | c8 | c8 | G8 | A8 | _B8- | B4 A4- | A4 G4- | G4 ^F4 | %128
 G8 |] %129
V:2
[K:F] d8 | e8 | f8 | e4 c4- | c4 d4- | d4 c4 | f4 e4 | f4 g4- | g4 f4 | d8- | d4 e4 | c8 | d8 | %13
 A4 d4 | B4 G4 | A8 | G8 || G8 | A4 B4 | c4 G4 | A8 | B8 | A8 | G4 c4- | c4 d4 | e4 c4- | %26
 c2 d2 e2 f2 | g8 | f4 d4 | e4 c4- | c4 d4- | d4 G4 | d8 | c4 B4 | A8 | G8 || c8- | c4 f4 | e4 c4 | %39
 d4 B4 | c4 A4 | G8 | F8- | F8 | F8 | E4 F4 | G8 | A8 | G4 c4- | c4 d4 | B4 c4- | c4 A4 | G8 | %53
 F4 f4 | e4 c4- | c4 d4- | d4 B4 | A8 | G8 || e8- | e4 c4 | d4 e4 | f8 | (e4 a4- | a2) g2 e2 f2 | %65
 g4 d4 | e4 c4- | c4 A4 | B4 c4- | c4 d4 | e4 c4 | d8 | z4 d4 | c4 f4 | e4 c4- | c4 A4 | B4 c4- | %77
 c4 d4- | d4 c4 | d4 B4 | A8 | G8 || g8 | f4 d4 | f4 g4 | a8 | f4 d4 | e4 f4 | g8 | e8 | d4 f4- | %91
 f4 g4 | a4 f4 | e8 | d8 | G4 d4 | e4 d2 f2- | f2 g2 a4 | f2 d2 e2 f2 | g4 a4 | f4 g4 | e8 | d8 | %103
 g8 | z4 g4 | f4 d4 | e8 | f8 | e4 c4- | c4 A4 | B4 c4- | c4 d4 | B4 (3:2:1c6- | (3:2:2c2 A4 c4- | %114
 c4 A4 | G8 | F8- | F8 | z8 | f8 | e4 g4- | g4 (3:2:1c6- | (3:2:2c2 G4 c4- | c4 d4- | d4 G4 | d8 | %126
 c4 B4 | A8 | G8 |] %129
V:3
[K:F] D8 | C8 | F8 | C8 | F4 D4 | D8 | F8 | A8 | G8 | D8 | G8 | C8 | F4 D4 | D8 | G4 E4 | D8 | %16
 d8 || G8 | D8 | C8 | F4 A4 | G8 | D8 | E4 C4 | F8 | c8 | A8 | G8 | D4 F4 | C8 | F4 D4 | G8- | %32
 G4 D4 | F4 G4 | D8 | d8 || C8 | F8 | C4 E4 | D4 G4 | C4 F4 | C8 | z4 c4- | c8 | A8 | G4 A4 | %46
 G4 E4 | D8 | E4 C4 | F4 D4 | _E4 C4 | z4 c4 | d4 e4 | f4 F4 | C8 | F4 (3:2:2D4 E2 | F4 G4 | D8 | %58
 d8 || A8- | A8 | G8 | D8 | A4 F4- | F2 G2 A4 | G8 | c8 | F8 | E4 C4 | F8 | E8 | D8- | D8 | F8 | %74
 C8 | F8 | _E4 C4 | F4 D4 | G4 A4 | F4 G4 | D8 | d8 || G8 | D4 d4- | d2 c2 B4 | A8 | D8 | A8 | G8 | %89
 A8 | D4 d4- | d4 c4- | c4 d4 | A8 | D4 G4 | d4 G4 | c4 B4- | B4 A4 | D4 A4 | G4 F4 | D4 G4 | A8 | %102
 B4 G4 | G8- | G8 | z4 B4 | A8 | F8 | C8 | F8 | G4 E4 | F4 D4 | _E4 C4 | F8 | E4 F4 | C8 | c4 A4- | %117
 A2 B2 c4 | d2 B4 A2 | F8 | C8- | C8 | C8 | F4 D4 | G8- | G4 D2 E2 | F4 G4 | D8 | d8 |] %129

